X:9782
T:London Lasses
R:reel
S:(Sean Ryan)
H:
N:
D:?
Z:Adrian Scahill
M:4/4
L:1/8
K:G
G3B dG (3Bcd|e2ag egg2|G3B dG (3Bcd|eBdB AGEF|G3B dG (3Bcd|e2ag egg2|\
bgag (3efg fa|1 gedB AGEF:|2 gedB AGFG||\ 
g2fg dee2|dGG2 BGBd|g2fg efge|dBGA BAA2|g2fg dee2|dBB2 dega|\
b2ag (3efg fa|gedB AGEF:||


